X:1
T:Gleich als der Hirsch
T:André Vierendeels
T:Melody by Georg Vogler(1625) (Soprano voice)
T:Source : Catechismus---Würzburg---J.Volmari---1652. Editor : André Vierendeels (16/10/17).
T:Notes : Original clef : C1, other voices supplied editorially Original note values have been halved Text Middle German
T:Gleich als der Hirsch
T:©
T:©
C:André Vierendeels
Z:©
%%score [ 1 2 3 ]
L:1/8
Q:1/4=120
M:3/4
K:F
V:1 treble nm="Soprano" snm="S"
V:2 treble-8 nm="Tenor" snm="T"
V:3 bass nm="Bass" snm="B"
V:1
"^1)" G2 G2 G2 | B4 A2 | A4 G2 | ^F6 | z2 G2 A2 | B2 c4 | B2 G4 | ^F2 !fermata!G4 | z2 G2 B2 | %9
w: Gleich als der|Hirsch zur|Was- ser-|quell,|wann er|ge- schos-|sen, ey-|let schnell:|al- so|
w: Ihr Him- mel|ra- wet|o- ben|rab,|die längst|von Gott|ver- sproch-|ne Gab,|ihr Wol-|
 B2 A4 | d2 d4 | ^c2 d4 | z2 d2 d2 | d2 B4 | c2 B4 | A2 !fermata!B4 | B4 c2 | d4 c2 | B2 A2 G2 | %19
w: der lie-|ben Va-|ter Brunst,|von al-|ters her|rufft nicht|umb sonst,|es woll|doch kom-|men Je- sus|
w: cken re-|gnet all-|be- reyt,|den Leh-|rer der|Ge- rech-|tig- keit,|O Er-|den grü-|ne thu dich|
 ^F6 | ^F2 G4 | A2 B4 | A2 G4 | ^F2 !fermata!G4 |] %24
w: Christ,|der ihr,|und un-|ser Hey-|land ist;|
w: auff,|da- mit|ich zu|mein Hey-|land lauff.|
V:2
"^1)""^2)" d2 d2 c2 | d4 c2 | f2 d4 | A6 | z2 B2 c2 | d2 A4 | d2 e4 | A2 d4 | z2 e2 d2 | d2 f4 | %10
w: Gleich als der|Hirsch zur|Was- ser-|quell,|wann er|ge- schos-|sen, ey-|let schnell:|al- so|der lie-|
w: Ach Gott zer-|reitz noch|die- sen|Tag,|die Him-|mel, steig|zu uns|her ab,|O Hertz|send doch|
 d2 B4 | A2 A4 | z2 A2 A2 | A2 d4 | A2 d4 | c2 !fermata!d4 | d4 e2 | f4 e2 | d2 c2 c2 | A6 | %20
w: ben Vat-|ter Brunst,|von al-|ters her|rufft nicht|umb sonst,|es woll|doch kom-|men Je- sus|Christ,|
w: das Lamb-|lein werth,|das herz-|schen soll|ü- ber|die Erd:|in des-|sen Blut|die Sünd der|Welt,|
 A2 B2 d2 | f2 d4 | c2 e4 | A2 !fermata!B4 |] %24
w: der ihr, und|_ un-|ser Hey-|land ist.|
w: dir weg zu|neh- *|men wol|ge- fält.|
V:3
"^3)""^1)""^4)" G,2 G,2 C,2 | B,,4 F,2 | D,4 G,2 | D,6 | z2 G,2 F,2 | B,,2 F,4 | G,2 C,4 | %7
w: Gleich als der|Hirsch zur|Was- ser-|quell,|wann er|ge- schos-|se, ey-|
w: Schick doch den|Sa- men,|wel- cher|soll|der Schlan-|gen- kopf|zer- tret-|
 D,2 !fermata!G,4 | z2 C,2 B,,2 | B,,2 D,4 | F,2 G,4 | A,2 D,4 | z2 D,2 F,2 | D,2 G,4 | F,2 B,,4 | %15
w: let schnell:|al- so|der lie-|ben Vat-|ter Brunst,|von al-|ters her|rufft nicht|
w: ten vollt,|wel- cher|zer- stör-|desz Teuf-|fels Reich|un ma-|che uns|den En-|
 F,2 !fermata!B,,4 | G,4 C,2 | B,,4 C,2 | G,2 F,2 C,2 | D,6 | D,2 G,4 | F,2 G,4 | F,2 C,4 | %23
w: umb sonst,|es woll|doch kom-|men Je- *|Christ,|der ihr,|und un-|ser Hey-|
w: glen gleich,|da- mit|in him|ge- se- *|werd,|das gan-|tze Volck|auff die-|
 D,2 !fermata!G,4 |] %24
w: land ist.|
w: ser Erd.|

